public/assets/images/icons/aur-icon4.svg

<svg width="46" height="45" viewBox="0 0 46 45" fill="none" xmlns="http://www.w3.org/2000/svg">
<rect x="0.117188" width="45" height="45" rx="22.5" fill="#FFC6F9"/>
<path d="M14.1439 21.1703L18.4917 21.5376C18.4917 21.5376 23.482 19.288 24.2329 14.2051C24.6681 11.26 26.7724 12.6277 27.084 14.5762C27.5899 17.7402 25.5278 20.5461 25.5278 20.5461C25.5278 20.5461 31.4928 20.5239 31.7768 22.4246C32.0748 24.419 28.3122 23.9234 28.3122 23.9234C28.3122 23.9234 32.5376 23.6612 32.083 26.1197C31.7597 27.8686 28.1442 26.9624 28.1442 26.9624C28.1442 26.9624 31.4363 26.9366 31.3076 28.6332C31.1566 30.6209 27.611 29.7013 27.611 29.7013C27.611 29.7013 30.6619 29.6139 29.8322 31.6844C29.0028 33.7551 18.9966 31.3388 17.877 30.4188C16.7573 29.4985 13.1172 29.3633 13.1172 29.3633L14.1439 21.1703Z" fill="#C64027"/>
</svg>

<svg xmlns="http://www.w3.org/2000/svg" width="46" height="45" fill="none"><rect width="45" height="45" x=".117" fill="#FFC6F9" rx="22.5"/><path fill="#C64027" d="m14.144 21.17 4.348.368s4.99-2.25 5.74-7.333c.436-2.945 2.54-1.577 2.852.371.506 3.164-1.556 5.97-1.556 5.97s5.965-.022 6.249 1.879c.298 1.994-3.465 1.498-3.465 1.498s4.226-.262 3.771 2.197c-.323 1.749-3.939.842-3.939.842s3.292-.025 3.164 1.671c-.151 1.988-3.697 1.068-3.697 1.068s3.05-.087 2.221 1.983c-.83 2.071-10.835-.345-11.955-1.265s-4.76-1.056-4.76-1.056z"/></svg>
